!!!COM: Louise Reichardt
!!!CNT: Deutsch
!!!TXO: Deutsch
!!!OTL: Wachtelwacht
!!!LYR: Aus des Knaben Wunderhorn (eds. von Arnim and Brentano)
!!!OPR: 
!!!OPS: No opus information available
!!!ONM: No.2
!!!ENC: Ben Fuhrman
!!!YOR: Louise Reichardt: Songs
!!!YOR: New York, Da Capo Press, 1981
!!!ODT: 1800 - 1826
!!NB: Only vocal melody encoded.
!!NB: First instance of melodic material only encoded.
!!created: 2/17/10 1:24PM
!!proofed and posted: 2/17/10 1:24PM
**kern	**silbe
*clef G2	*
*k[b-]	*
*M3/8	*
*MM[Fro2hlich]	*
=1	=1
{8a	{Ho2rt
8a	wie
8b-	die
=2	=2
8cc	Wach-
8cc	-tel
(16cc	im
16ff)	|
=3	=3
(16ff	Gru2-
16ee)	|
8dd	-nen
8ee	scho2n
=4	=4
4ff}	schla2gt,}
{16.cc	{lo-
32cc	-bet
=5	=5
8cc	Gott,
8r	.
16.cc	lo-
32cc	-bet
=6	=6
4cc}	Gott!}
8r	.
=7	=7
{8ff	{mir
8ee	komt
8dd	kein
=8	=8
8cc	Schau-
8dd	-der,
8bn	sie
=9	=9
4cc}	sagt,}
8r	.
=10	=10
{8gg	{flie-
(16ff	-het
16ee)	|
(16dd	von
16cc)	|
=11	=11
8cc	ei-
8bn	-nem
8a	ins
=12	=12
8g	an-
8a	-dre
8bn	gru2n
=13	=13
4cc}	Feld,}
8r	.
=14	=14
{(16ee	{und
16ff)	|
(16ee	uns
16dd)	|
(16cc	den
16bn)	|
=15	=15
8a	Wachs-
8a	-thum
8a	der
=16	=16
8bn	Fru2-
8a	-chte
8bn	ver-
=17	=17
4cc}	-meldt,}
8r	.
=18	=18
{8g	ru-
8g	-fet
8g	zu
=19	=19
8cc	al-
8cc	-len
8cc	mit
=20	=20
8dd	Lust
8cc	und
8dd	mit
=21	=21
4ee}	Freud}
{16.cc	{dan-
32cc	-ke
=22	=22
4cc	Gott.
16.cc	dan-
32cc	-ke
=23	=23
4cc}	Gott.}
8r	.
=24	=24
{8ff	{der
8ee	du
8dd	mir
=25	=25
[4.cc	ge-
=26	=26
8cc]	|
8b-	-ben
8g	die
=27	=27
4f}	Zeit.}
8r	.
==	==
*-	*-
